static/assets/head_icons_png/man/bizi/1026048.svg

<svg xmlns="http://www.w3.org/2000/svg" width="3" height="3"><g transform="translate(1.45 1.3)"><path d="M1.1.4l.05.05.1.25-.05.25L1 .8.8.55.6.3l.2.1.2-.05.1.05M-1 .6l.15-.2.3-.15.05.05-.1.35-.2.2h-.05L-.9.9h-.15V.6H-1" fill="#823909"/><radialGradient id="a" gradientUnits="userSpaceOnUse" gradientTransform="matrix(.00053 .00003 -.00003 .00053 -.15 -.85)" spreadMethod="pad" cx="0" cy="0" r="819.2" fx="0" fy="0"><stop offset=".314" stop-color="#fff" stop-opacity=".431"/><stop offset="1" stop-color="#fff" stop-opacity="0"/></radialGradient><path d="M-.15-1.3l.3.15.1.3-.15.3q-.15.15-.3.15l-.3-.15-.1-.3.15-.3.3-.15" fill="url(#a)"/><radialGradient id="b" gradientUnits="userSpaceOnUse" gradientTransform="matrix(.00172 0 0 .00172 -.05 1.4)" spreadMethod="pad" cx="0" cy="0" r="819.2" fx="0" fy="0"><stop offset="0" stop-color="#f39b61"/><stop offset="1" stop-color="#f8be98"/></radialGradient><path d="M1.3.15l.15.4-.2.5L1 1.2l-.55.05-.3.1-1-.3L-1.1.9l-.2-.2h-.05L-1.4.65q-.1-.45.2-.6l.55-.1L.2 0h.75l.35.15m-.3.2L.8.4.6.3l.2.25.2.25.2.15.05-.25-.1-.25L1.1.4 1 .35M-1.05.6v.3h.15l.05-.05h.05l.2-.2.1-.35-.05-.05-.3.15-.15.2h-.05" fill="url(#b)"/></g></svg>

<?xml version="1.0" encoding="utf-8"?>
<svg version="1.1" id="Layer_1"
xmlns="http://www.w3.org/2000/svg"
xmlns:xlink="http://www.w3.org/1999/xlink"
xmlns:author="http://www.sothink.com"
width="3px" height="3px"
xml:space="preserve">
<g id="465" transform="matrix(1, 0, 0, 1, 1.45, 1.3)">
<path style="fill:#823909;fill-opacity:1" d="M1.1,0.4L1.15 0.45L1.25 0.7L1.2 0.95L1 0.8L0.8 0.55L0.6 0.3L0.8 0.4L1 0.35L1.1 0.4M-1,0.6L-0.85 0.4L-0.55 0.25L-0.5 0.3L-0.6 0.65L-0.8 0.85L-0.85 0.85L-0.9 0.9L-1.05 0.9L-1.05 0.6L-1 0.6" />
<radialGradient
id="RadialGradID_4060" gradientUnits="userSpaceOnUse" gradientTransform="matrix(0.000534058, 3.05176e-005, -3.05176e-005, 0.000534058, -0.15, -0.85)" spreadMethod ="pad" cx="0" cy="0" r="819.2" fx="0" fy="0" >
<stop  offset="0.313725"  style="stop-color:#FFFFFF;stop-opacity:0.431373" />
<stop  offset="1"  style="stop-color:#FFFFFF;stop-opacity:0" />
</radialGradient>
<path style="fill:url(#RadialGradID_4060) " d="M-0.15,-1.3L0.15 -1.15L0.25 -0.85L0.1 -0.55Q-0.05 -0.4 -0.2 -0.4L-0.5 -0.55L-0.6 -0.85L-0.45 -1.15L-0.15 -1.3" />
<radialGradient
id="RadialGradID_4061" gradientUnits="userSpaceOnUse" gradientTransform="matrix(0.00172424, 0, 0, 0.00172424, -0.05, 1.4)" spreadMethod ="pad" cx="0" cy="0" r="819.2" fx="0" fy="0" >
<stop  offset="0"  style="stop-color:#F39B61;stop-opacity:1" />
<stop  offset="1"  style="stop-color:#F8BE98;stop-opacity:1" />
</radialGradient>
<path style="fill:url(#RadialGradID_4061) " d="M1.3,0.15L1.45 0.55L1.25 1.05L1 1.2L0.45 1.25L0.15 1.35L-0.85 1.05L-1.1 0.9L-1.3 0.7L-1.35 0.7L-1.4 0.65Q-1.5 0.2 -1.2 0.05L-0.65 -0.05L0.2 0L0.95 0L1.3 0.15M1,0.35L0.8 0.4L0.6 0.3L0.8 0.55L1 0.8L1.2 0.95L1.25 0.7L1.15 0.45L1.1 0.4L1 0.35M-1.05,0.6L-1.05 0.9L-0.9 0.9L-0.85 0.85L-0.8 0.85L-0.6 0.65L-0.5 0.3L-0.55 0.25L-0.85 0.4L-1 0.6L-1.05 0.6" />
</g>
</svg>
